!!!PDT:	1923
!!!LANG: Non-Tone
!!!LING_GROUP: Siouan
!!!REG: Dakotas
!!!COM: Anon.
!!!OTL: The Missouri Women
!!!ODT: <1918//
!!!MPN: Wopite [Scattered Corn, Mrs. Holding Eagle]
!!!MLC: Fort Berthold Reservation, North Dakota, United States of America
!! Song was recorded during either the summer of 1912, 1915, or 1918.
!!!AGN: monody
!!!SOCIAL_FUNCTION: Ceremony of the Little River Women Society
!!!AMT: irregular
!!!RWG: Transcribed pitches, durations, and meters are only approximate.
!! Drum Tempo: MM152
**kern
*ICvox
*Ifemale
*clefG2
*k[b-e-a-]
*M2/4
*MM152
4g
=1
8cc
8cc
4cc
*M3/4
=2
8cc
8cc
8cc
8b-
4g
*M2/4
=3
8cc
8b-
8b-
8g
*M3/4
=4
2g
4g
*M2/4
=5
(8b-
8g
4g)
*M3/4
=6
(4.g
8e-)
4c
*M2/4
=7
(8g
8e-
8e-
8c
*M3/4
=8
2c)
4Bn
*M2/4
=9
2c
*M3/4
=10
(4.c
8B-)
4G
*M2/4
=11
8c
8B-
8B-
8G
=12
2g
=13
4g
4g
=14
2g
==
*-
!!!CNT: Mandan
!!!TXO: Mandan
!!!OCY: United States
!!!OCL: Frances Densmore
!!!YOR: Frances Densmore, "Mandan and Hidatsa Music",
!!!YOR: Bulletin 80, page 103, No. 40
!!!PPR: Smithsonian Institution, Bureau of American Ethnology
!!!PPR: Government Printing Office
!!!PDT: 1923
!!!PPP: Washington, DC, United States of America
!!!YEC: Electronic Copyright 2000 David Huron
!!!YER: August 2000
!!!YEN: United States of America
!!!ENC: David Huron
!!!RDT: August 16, 2000
!!!EEV: Release 1.0
!!!AIN: tom, vox
